polaris-icons/icons/newicons/HeartMajor.svg

<svg width="20" height="20" viewBox="0 0 20 20" fill="none" xmlns="http://www.w3.org/2000/svg">
<path fill-rule="evenodd" clip-rule="evenodd" d="M3.18804 4.92157C1.60399 6.48367 1.60399 9.01633 3.18804 10.5784L4.79772 12.1658L4.79961 12.1677C4.78958 12.1796 4.81066 12.1563 4.79961 12.1677L9.64894 16.9498C9.84362 17.1418 10.1564 17.1418 10.3511 16.9498L16.812 10.5785C18.396 9.01645 18.396 6.48379 16.812 4.92169C15.2279 3.35959 12.6596 3.35959 11.0756 4.92169L10.3511 5.6361C10.1565 5.82808 9.84366 5.82808 9.64898 5.63609L8.92442 4.92157C7.34036 3.35948 4.7721 3.35948 3.18804 4.92157ZM10 15.1894L4.2413 9.51041C3.25293 8.53575 3.25291 6.96427 4.24127 5.98961C5.24128 5.00346 6.87118 5.00346 7.87118 5.98961L8.59575 6.70413C9.37448 7.47206 10.6256 7.47207 11.4044 6.70413L12.1288 5.98973C13.1288 5.00358 14.7587 5.00358 15.7587 5.98973C16.7471 6.96439 16.7471 8.53584 15.7587 9.51051L10 15.1894Z" fill="black"/>
</svg>

<svg viewBox="0 0 20 20" fill="none" xmlns="http://www.w3.org/2000/svg"><path fill-rule="evenodd" clip-rule="evenodd" d="M3.188 4.922a3.96 3.96 0 0 0 0 5.656l1.61 1.588.002.002c-.01.012.01-.012 0 0l4.849 4.782a.5.5 0 0 0 .702 0l6.461-6.371a3.961 3.961 0 0 0 0-5.657 4.097 4.097 0 0 0-5.736 0l-.725.714a.5.5 0 0 1-.702 0l-.725-.714a4.097 4.097 0 0 0-5.736 0Zm6.812 10.267-5.759-5.679a2.461 2.461 0 0 1 0-3.52c1-.987 2.63-.987 3.63 0l.725.714a2 2 0 0 0 2.808 0l.725-.714c1-.986 2.63-.986 3.63 0a2.46 2.46 0 0 1 0 3.52l-5.759 5.68Z" fill="#000"/></svg>
